X:4989
T:Palmer's Gate
O:england
M:C|
L:1/8
C:Joe Liddy
R:reel
K:AMaj
c~F3 ABcA|(3Bcd cB AFEF|~A3B c2AB|(3cBA ec BcAB|
c~F3 ABcA|(3Bcd cB AFEF|ABce fecB|A~F3 FGAB:|
:cffe ~f3g|afga fecB|A2 (3cBA eAcB|ABce fecB|
cffe ~f3g|afga fecB|ABce fecB|A~F3 FGAB:|


